Adwaita++/actions/16/filename-slash-amarok.svg

<svg height="16" viewBox="0 0 16 16" width="16" xmlns="http://www.w3.org/2000/svg">
  <path d="m8.5527344 2.0859375a1.0001 1.0001 0 0 0 -.9277344.7402344l-2.5878906 9.6601561a1.0001 1.0001 0 0 0 .7070312 1.22461l.9667969.259765a1.0001 1.0001 0 0 0 1.2246094-.707031l2.5878911-9.6601564a1.0001 1.0001 0 0 0 -.7070318-1.2246094l-.9667968-.2597656a1.0001 1.0001 0 0 0 -.296875-.0332031z" fill="#474747"/>
</svg>

<svg xmlns="http://www.w3.org/2000/svg" width="16" height="16" viewBox="0 0 16 16">
 <defs>
  <style id="current-color-scheme" type="text/css">
   .ColorScheme-Text { color:#474747; } .ColorScheme-Highlight { color:#4285f4; }
  </style>
 </defs>
 <path style="fill:currentColor" class="ColorScheme-Text" d="M 8.5527344 2.0859375 A 1.0001 1.0001 0 0 0 7.625 2.8261719 L 5.0371094 12.486328 A 1.0001 1.0001 0 0 0 5.7441406 13.710938 L 6.7109375 13.970703 A 1.0001 1.0001 0 0 0 7.9355469 13.263672 L 10.523438 3.6035156 A 1.0001 1.0001 0 0 0 9.8164062 2.3789062 L 8.8496094 2.1191406 A 1.0001 1.0001 0 0 0 8.5527344 2.0859375 z"/>
</svg>
